X:198
T:The morning dew
T:The hare among the heather
R:Reel
O:Ireland, Scotland
S:My arrangement from various sources
B:Kerr's Fourth
D:Mulvahill- The Morning Dew
Z:Transcription, arrangement, chords:Mike Long
M:C|
L:1/8
K:D
"Em"E2 EB BAFD|"Em"EBEB "D"ADFD|"Em"~E2EB BAFA|"G"BcdB "D"ADFD:|\
"Em"~B2 eB fBeB|"Em"BcdB "D"ADFA|
"Em"~B2 eB fBeB|"G"dcdB "D"ADFA|\
"Em"~B2 eB fBeB|"Em"B2dB "D"ADFA|"G"(3(Bcd) eg fdec|"D"dcdB ADFA|]
|:"Em"BAGF EFGA|"Em"BAGB "D"ADFA|"Em"BAGF EFGA|[1 "G"BcdB "D"ADFA:|[2 "D"BcdB AGFD|]
